X: 31
T: Miss Forbes' Farewell to Banff
T: March, G
L: 1/16
M: 2/2
K: G
|: G2A2| B4B2d2 c2B2A2G2| B2d2e2f2 g4f2e2| d2d2d2e2 d2B2G2A2| B4A4 A4G2A2| 
B4B2d2 c2B2A2G2| B2d2e2f2 g4f2e2| d2d2d2e2 d2B2G2A2| B4G4 G4:| 
|: B2d2| g4g2a2 g2f2e2d2| e2d2e2f2 g4f2e2| d2d2d2e2 d2B2G2A2| B4A4 A4B2d2| 
g4g2a2 g2f2e2d2| e2d2e2f2 g4f2e2| d2d2d2e2 d2B2G2A2| B4G4 G4:| 
D: Mike MacDougall, Tape for Fr. Hector
